X:1
T:Title
%%score [ ( 1 2 ) ( 3 4 ) ] { ( 5 6 ) | ( 7 8 ) }
L:1/8
Q:1/4=120
M:4/4
K:G
V:1 treble nm="Midi_74"
V:2 treble 
V:3 bass nm="Midi_74"
V:4 bass 
V:5 treble nm="Org."
V:6 treble 
V:7 bass 
V:8 bass 
V:1
 d8 | (d2 A2) (B2 c2) | B8 || B8 | A4 (A2 G2) | F4 E4 | D8 || G8 | (G2 D2) (E2 =F2) | E8 || e8 | %11
 d4 (d2 c2) |"^William Henry Havergal\n(1793-1870)" B4 A4 | G8 |] %14
V:2
 G8 | A4 F4 | G8 || G8 | E4 (D2 E2) | (E2 D2) ^C4 | D8 || B,8 | D4 B,4 | C8 || G8 | F4 (G2 A2) | %12
 (A2 G2) F4 | G8 |] %14
V:3
 D8 | D4 D4 | D8 || D8 | ^C4 (D2 B,2) | A,4 (A,2 G,2) | F,8 || G,8 | G,4 G,4 | G,8 || C8 | %11
 A,4 (D2 E2) | D4 (D2 C2) | B,8 |] %14
V:4
 B,8 | F,4 D,4 | G,8 || G,8 | (G,2 E,2) (F,2 G,2) | A,4 A,,4 | D,8 || E,8 | B,,4 G,,4 | C,8 || %10
 C,8 | (D,2 A,,2) (B,,2 C,2) | D,4 D,4 | G,,8 |] %14
V:5
 d8 | d2 A2 B2 c2 | B8 || B8 | A4 A2 G2 | F4 E4 | D8 || G8 | G2 D2 E2 =F2 | E8 || e8 | d4 d2 c2 | %12
 [DB]4 A4 | [B,G]8 |] %14
V:6
 [DG]8 | [DA]4 [DF]4 | [DG]8 || [DG]8 | ^C4 D2 E2 | E2 D2 ^C4 | D8 || [G,B,]8 | [G,D]4 [G,B,]4 | %9
 [G,C]8 || [Gc]8 | F4 G2 [EA]2 | A2 G2 F4 | G8 |] %14
V:7
 x8 | x8 | x8 || x8 | x8 | x4 A,2 G,2 | x8 || x8 | x8 | x8 || x8 | x8 | x8 | x8 |] %14
V:8
 B,8 | F,4 D,4 | G,8 || G,8 | G,2 E,2 F,2 G,2 | A,4 A,,4 | D,8 || E,8 | B,,4 G,,4 | C,8 || C,8 | %11
 D,2 A,,2 B,,2 C,2 | D,4 D,4 | G,,8 |] %14

